docs/img/popup/logo-visa.svg

<svg width="150" height="50" viewBox="0 0 150 50" fill="none" xmlns="http://www.w3.org/2000/svg">
<path d="M65.4187 12.3297C63.3242 11.5725 61.1125 11.1907 58.8853 11.2019C51.6938 11.2019 46.6116 14.8356 46.5806 20.0359C46.5216 23.8581 50.1834 26.0125 52.9509 27.3006C55.7944 28.6197 56.745 29.4409 56.7309 30.6109C56.7169 32.4138 54.4584 33.2181 52.38 33.2181C49.4916 33.2181 47.925 32.8244 45.5091 31.8119L44.6119 31.3872L43.5881 37.3947C45.3459 38.1119 48.4959 38.7419 51.7472 38.8009C59.4084 38.8009 64.4034 35.1981 64.4597 29.6434C64.5188 26.5975 62.5584 24.2856 58.3819 22.3788C55.8619 21.1497 54.2841 20.3116 54.2841 19.0516C54.2841 17.9378 55.6313 16.7678 58.4438 16.7678C60.3102 16.7211 62.1658 17.065 63.8916 17.7775L64.5806 18.0841L65.5903 12.2988L65.4187 12.3297ZM84.1134 11.6997H78.4884C76.7306 11.6997 75.4256 12.1694 74.6494 13.9131L63.8381 38.4184H71.4853L73.0266 34.405L82.3556 34.4191C82.5891 35.3556 83.2472 38.4156 83.2472 38.4156H90L84.1134 11.6997ZM36.225 11.4803H43.5066L38.9503 38.2103H31.6688L36.225 11.4663V11.4803ZM17.7103 26.2009L18.4556 29.9219L25.5881 11.6997H33.3084L21.8222 38.3734H14.1356L7.83563 15.7863C7.78736 15.5986 7.70137 15.4228 7.5829 15.2695C7.46442 15.1162 7.31596 14.9887 7.14656 14.8947C4.88358 13.7177 2.48296 12.8268 0 12.2425L0.0871875 11.6828H11.835C13.4184 11.7419 14.7066 12.2425 15.1453 13.9413L17.7103 26.215V26.2009ZM75.1022 28.9403L78.0188 21.4563C77.9737 21.5266 78.6178 19.9178 78.9834 18.9053L79.4812 21.2031L81.1688 28.9234H75.1022V28.9403Z" fill="#262D36"/>
<path d="M114.583 39.5833C122.637 39.5833 129.167 33.0542 129.167 25C129.167 16.9459 122.637 10.4167 114.583 10.4167C106.529 10.4167 100 16.9459 100 25C100 33.0542 106.529 39.5833 114.583 39.5833Z" fill="#EA001B"/>
<path d="M135.417 39.5833C143.471 39.5833 150 33.0542 150 25C150 16.9459 143.471 10.4167 135.417 10.4167C127.363 10.4167 120.833 16.9459 120.833 25C120.833 33.0542 127.363 39.5833 135.417 39.5833Z" fill="#FFA200" fill-opacity="0.8"/>
</svg>

<svg width="150" height="50" fill="none" xmlns="http://www.w3.org/2000/svg"><path d="M65.419 12.33a18.937 18.937 0 00-6.534-1.128c-7.191 0-12.273 3.634-12.304 8.834-.06 3.822 3.602 5.976 6.37 7.265 2.843 1.319 3.794 2.14 3.78 3.31-.014 1.803-2.273 2.607-4.351 2.607-2.888 0-4.455-.394-6.87-1.406l-.898-.425-1.024 6.008c1.758.717 4.908 1.347 8.16 1.406 7.66 0 12.655-3.603 12.712-9.158.059-3.046-1.902-5.357-6.078-7.264-2.52-1.23-4.098-2.067-4.098-3.327 0-1.114 1.347-2.284 4.16-2.284a13.398 13.398 0 015.448 1.01l.689.306 1.01-5.785-.172.03zm18.694-.63h-5.625c-1.757 0-3.062.47-3.839 2.213L63.84 38.418h7.646l1.542-4.013 9.329.014c.233.937.891 3.997.891 3.997H90L84.113 11.7zm-47.888-.22h7.282L38.95 38.21h-7.28l4.556-26.744v.014zM17.71 26.2l.746 3.722L25.588 11.7h7.72L21.822 38.373h-7.686l-6.3-22.587a1.426 1.426 0 00-.69-.891A30.756 30.756 0 000 12.243l.087-.56h11.748c1.583.059 2.872.56 3.31 2.258l2.565 12.274v-.014zm57.392 2.74l2.917-7.484c-.045.07.599-1.538.964-2.55l.498 2.297 1.688 7.72h-6.067v.017z" fill="#262D36"/><path d="M114.583 39.583c8.054 0 14.584-6.529 14.584-14.583s-6.53-14.583-14.584-14.583C106.529 10.417 100 16.946 100 25s6.529 14.583 14.583 14.583z" fill="#EA001B"/><path d="M135.417 39.583C143.471 39.583 150 33.054 150 25s-6.529-14.583-14.583-14.583S120.833 16.946 120.833 25s6.53 14.583 14.584 14.583z" fill="#FFA200" fill-opacity=".8"/></svg>
